X: 267
T: Bumblebee in a Jug [1]
B: canberra pickers and fiddlers
B: tunes
M:4/4
L:1/8
R: reel
Q: 1/4=220
K:C
V:1 
"C"C2CE G3c|"F"AFAc "G"BGAB|"C"c2cd edcB|"F"A2 dc "G"BAGE|!
"C"C2CE G3c|"F"AFAc "G"BGAB|"C"c2cd ecdc|1"G"BGAB "C"c2ED:|2"G"BGAB "C"c3d|]!
|:"C"efed efed|eged cBAG|"Am"ABAG ABAG|"G"EGAB cBcd |!
"C"e4 e3d |eged cBAG|"Am"A2Ac "C"ecdc|"G"BGAB "C"c4:|]
% abcbook-tune_id 63ae8f1cac62f5e6acc36bbd
% abcbook-tune_composer_id 
% abcbook-link-0 https://www.youtube.com/watch?v=nEcYXqlSte8
% abcbook-boost 0
% abcbook-difficulty 0
% abcbook-tags canberra pickers and fiddlers,old time tunes,steve ryan,© free
% abcbook-tablature 
% abcbook-transpose 
% abcbook-tuning GDAE
% abcbook-lastupdated 1675155075599
% abcbook-src-url https://tunebook.net/scrape/tunes.abc
% abcbook-soundfonts 
% abcbook-repeats 1


